X:1
T:G Major Oliver Holden, 1803
T:Nahum Tate and Nicholas Brady, 1698 (Psalm 67)    66. 86. (S. M.)
T:Chosen Race No copyright. Transcribed from The Charlestown Collection, 1803.
%%score [ 1 2 3 4 ]
L:1/8
M:2/2
K:G
V:1 treble nm="Treble" snm="Tr."
V:2 treble nm="Counter" snm="C."
V:3 treble-8 nm="Tenor" snm="T."
V:4 bass nm="Bass" snm="B."
V:1
 B4 | B4 (A2 G2) | (F2 A2) (d2 c2) | B6 c2 | d4 A4 | (B2 A2) G4 | F6 z2 | z8 | z4 z2 d2 | %9
w: ||||||||And|
 d2 d2 d2 c2 | B2 B2 B2 d2 | B2 g2 g2 B2 | d6 B2 | d4 B4 | e4 (d2 c2) | B8 |] %16
w: cause the bright- ness|of Thy face On|all Thy saints to|shine, *||||
V:2
 D4 | G4 E4 | F4 F4 | G6 F2 | G4 D4 | E4 D4 | D6 z2 | z8 | z8 | z4 z2 D2 | G2 D2 D2 G2 | %11
w: 1.~To|bless Thy|cho- sen|race, In|mer- cy,|Lord, in-|cline:|||And|cause the bright- ness|
 (G2 D2) (D2 G2) | (G4 F2) G2 | B4 G4 | G4 (G2 F2) | G8 |] %16
w: of * Thy *|face~ _ On|all Thy|saints to *|shine.|
V:3
 G4 | d4 (c2 B2) | A4 A4 | G6 A2 | B4 c4 | (d2 c2) B4 | A6 z2 | z4 z2 A2 | B2 B2 B2 A2 | %9
w: |||||||And|cause the bright- ness|
 G2 G2 G2 A2 | B2 g2 g2 B2 | d8- | d6 ef | g4 d4 | c4 (B2 A2) | G8 |] %16
w: of Thy face On|all Thy saints to|shine,~|_ _ _||||
V:4
 G,4 | G,4 C,4 | D,4 D,4 | G,6 D,2 | G,4 F,4 | (E,2 F,2) G,4 | D,6 D,2 | G,2 G,2 G,2 D,2 | %8
w: ||||||* And|cause the bright- ness|
 G,2 G,2 G,2 A,2 | B,2 B,2 B,2 A,2 | G,4 G,4 | G,2 G,2 G,2 G,2 | B,2 G,2 D2 G,2 | G,4 G,4 | %14
w: of Thy face On|all Thy saints to|shine, And|cause the bright- ness|of Thy face *||
 C,4 D,4 | G,8 |] %16
w: ||

